;FLAVOR:Marlin
;TIME:612
;Filament used: 0.273583m
;Layer height: 0.1
;Generated with Cura_SteamEngine 3.3.1
M82 ;absolute extrusion mode
G21 ; set units to millimeters
G90 ; use absolute positioning
M82 ; absolute extrusion mode
M104 S200 ; set extruder temp
M140 S50 ; set bed temp
M190 S50 ; wait for bed temp
M109 S200 ; wait for extruder temp
M83 ; Relative extrusion mode
G28; home all without mesh bed level
G0 Z5
G0 Z0.4
G92 E0.0 ; reset extruder distance position
G1 X60.0 E9.0 F1000.0 ; intro line
G1 X100.0 E21.5 F1000.0 ; intro line
G92 E0.0 ; reset extruder distance position
M150 R200 U255 B200
M83 ;relative extrusion mode
G1 F1500 E-9
;LAYER_COUNT:101
;LAYER:0
M107
G0 F3600 X94.623 Y94.349 Z0.1
;TYPE:SKIRT
G1 F1500 E9
G1 F3000 X95.222 Y93.834 E0.01314
G1 X95.87 Y93.383 E0.01313
G1 X96.561 Y92.999 E0.01315
G1 X97.286 Y92.687 E0.01313
G1 X98.039 Y92.45 E0.01313
G1 X98.813 Y92.291 E0.01314
G1 X99.598 Y92.21 E0.01312
G1 X100 Y92.2 E0.00669
G1 X110 Y92.2 E0.1663
G1 X110.789 Y92.24 E0.01314
G1 X111.569 Y92.359 E0.01312
G1 X112.334 Y92.557 E0.01314
G1 X113.074 Y92.831 E0.01312
G1 X113.783 Y93.179 E0.01313
G1 X114.454 Y93.597 E0.01315
G1 X115.078 Y94.08 E0.01312
G1 X115.651 Y94.623 E0.01313
G1 X116.166 Y95.222 E0.01314
G1 X116.617 Y95.87 E0.01313
G1 X117.001 Y96.561 E0.01315
G1 X117.313 Y97.286 E0.01313
G1 X117.55 Y98.039 E0.01313
G1 X117.709 Y98.813 E0.01314
G1 X117.79 Y99.598 E0.01312
G1 X117.8 Y100 E0.00669
G1 X117.8 Y110 E0.1663
G1 X117.76 Y110.789 E0.01314
G1 X117.641 Y111.569 E0.01312
G1 X117.443 Y112.334 E0.01314
G1 X117.169 Y113.074 E0.01312
G1 X116.821 Y113.783 E0.01313
G1 X116.403 Y114.454 E0.01315
G1 X115.92 Y115.078 E0.01312
G1 X115.377 Y115.651 E0.01313
G1 X114.778 Y116.166 E0.01314
G1 X114.13 Y116.617 E0.01313
G1 X113.439 Y117.001 E0.01315
G1 X112.714 Y117.313 E0.01313
G1 X111.961 Y117.55 E0.01313
G1 X111.187 Y117.709 E0.01314
G1 X110.402 Y117.79 E0.01312
G1 X110 Y117.8 E0.00669
G1 X100 Y117.8 E0.1663
G1 X99.211 Y117.76 E0.01314
G1 X98.431 Y117.641 E0.01312
G1 X97.666 Y117.443 E0.01314
G1 X96.926 Y117.169 E0.01312
G1 X96.217 Y116.821 E0.01313
G1 X95.546 Y116.403 E0.01315
G1 X94.922 Y115.92 E0.01312
G1 X94.349 Y115.377 E0.01313
G1 X93.834 Y114.778 E0.01314
G1 X93.383 Y114.13 E0.01313
G1 X92.999 Y113.439 E0.01315
G1 X92.687 Y112.714 E0.01313
G1 X92.45 Y111.961 E0.01313
G1 X92.291 Y111.187 E0.01314
G1 X92.21 Y110.402 E0.01312
G1 X92.2 Y110 E0.00669
G1 X92.2 Y100 E0.1663
G1 X92.24 Y99.211 E0.01314
G1 X92.359 Y98.431 E0.01312
G1 X92.557 Y97.666 E0.01314
G1 X92.831 Y96.926 E0.01312
G1 X93.179 Y96.217 E0.01313
G1 X93.597 Y95.546 E0.01315
G1 X94.08 Y94.922 E0.01312
G1 X94.623 Y94.349 E0.01313
G0 F3600 X95.016 Y94.53
G1 F3000 X95.611 Y94.042 E0.0128
G1 X96.253 Y93.619 E0.01279
G1 X96.936 Y93.264 E0.0128
G1 X97.651 Y92.983 E0.01278
G1 X98.393 Y92.777 E0.01281
G1 X99.151 Y92.649 E0.01278
G1 X100 Y92.6 E0.01414
G1 X110 Y92.6 E0.1663
G1 X110.768 Y92.64 E0.01279
G1 X111.528 Y92.759 E0.01279
G1 X112.271 Y92.957 E0.01279
G1 X112.99 Y93.231 E0.0128
G1 X113.676 Y93.578 E0.01278
G1 X114.323 Y93.994 E0.01279
G1 X114.923 Y94.475 E0.01279
G1 X115.47 Y95.016 E0.01279
G1 X115.958 Y95.611 E0.0128
G1 X116.381 Y96.253 E0.01279
G1 X116.736 Y96.936 E0.0128
G1 X117.017 Y97.651 E0.01278
G1 X117.223 Y98.393 E0.01281
G1 X117.351 Y99.151 E0.01278
G1 X117.4 Y100 E0.01414
G1 X117.4 Y110 E0.1663
G1 X117.36 Y110.768 E0.01279
G1 X117.241 Y111.528 E0.01279
G1 X117.043 Y112.271 E0.01279
G1 X116.769 Y112.99 E0.0128
G1 X116.422 Y113.676 E0.01278
G1 X116.006 Y114.323 E0.01279
G1 X115.525 Y114.923 E0.01279
G1 X114.984 Y115.47 E0.01279
G1 X114.389 Y115.958 E0.0128
G1 X113.747 Y116.381 E0.01279
G1 X113.064 Y116.736 E0.0128
G1 X112.349 Y117.017 E0.01278
G1 X111.607 Y117.223 E0.01281
G1 X110.849 Y117.351 E0.01278
G1 X110 Y117.4 E0.01414
G1 X100 Y117.4 E0.1663
G1 X99.232 Y117.36 E0.01279
G1 X98.472 Y117.241 E0.01279
G1 X97.729 Y117.043 E0.01279
G1 X97.01 Y116.769 E0.0128
G1 X96.324 Y116.422 E0.01278
G1 X95.677 Y116.006 E0.01279
G1 X95.077 Y115.525 E0.01279
G1 X94.53 Y114.984 E0.01279
G1 X94.042 Y114.389 E0.0128
G1 X93.619 Y113.747 E0.01279
G1 X93.264 Y113.064 E0.0128
G1 X92.983 Y112.349 E0.01278
G1 X92.777 Y111.607 E0.01281
G1 X92.649 Y110.849 E0.01278
G1 X92.6 Y110 E0.01414
G1 X92.6 Y100 E0.1663
G1 X92.64 Y99.232 E0.01279
G1 X92.759 Y98.472 E0.01279
G1 X92.957 Y97.729 E0.01279
G1 X93.231 Y97.01 E0.0128
G1 X93.578 Y96.324 E0.01278
G1 X93.994 Y95.677 E0.01279
G1 X94.475 Y95.077 E0.01279
G1 X95.016 Y94.53 E0.01279
G0 F3600 X95.408 Y94.716
G1 F3000 X95.998 Y94.257 E0.01243
G1 X96.634 Y93.862 E0.01245
G1 X97.308 Y93.538 E0.01244
G1 X98.013 Y93.288 E0.01244
G1 X98.741 Y93.114 E0.01245
G1 X99.483 Y93.019 E0.01244
G1 X100 Y93 E0.0086
G1 X110 Y93 E0.1663
G1 X110.747 Y93.04 E0.01244
G1 X111.485 Y93.159 E0.01243
G1 X112.207 Y93.357 E0.01245
G1 X112.903 Y93.63 E0.01243
G1 X113.566 Y93.977 E0.01244
G1 X114.189 Y94.392 E0.01245
G1 X114.763 Y94.871 E0.01243
G1 X115.284 Y95.408 E0.01244
G1 X115.743 Y95.998 E0.01243
G1 X116.138 Y96.634 E0.01245
G1 X116.462 Y97.308 E0.01244
G1 X116.712 Y98.013 E0.01244
G1 X116.886 Y98.741 E0.01245
G1 X116.981 Y99.483 E0.01244
G1 X117 Y100 E0.0086
G1 X117 Y110 E0.1663
G1 X116.96 Y110.747 E0.01244
G1 X116.841 Y111.485 E0.01243
G1 X116.643 Y112.207 E0.01245
G1 X116.37 Y112.903 E0.01243
G1 X116.023 Y113.566 E0.01244
G1 X115.608 Y114.189 E0.01245
G1 X115.129 Y114.763 E0.01243
G1 X114.592 Y115.284 E0.01244
G1 X114.002 Y115.743 E0.01243
G1 X113.366 Y116.138 E0.01245
G1 X112.692 Y116.462 E0.01244
G1 X111.987 Y116.712 E0.01244
G1 X111.259 Y116.886 E0.01245
G1 X110.517 Y116.981 E0.01244
G1 X110 Y117 E0.0086
G1 X100 Y117 E0.1663
G1 X99.253 Y116.96 E0.01244
G1 X98.515 Y116.841 E0.01243
G1 X97.793 Y116.643 E0.01245
G1 X97.097 Y116.37 E0.01243
G1 X96.434 Y116.023 E0.01244
G1 X95.811 Y115.608 E0.01245
G1 X95.237 Y115.129 E0.01243
G1 X94.716 Y114.592 E0.01244
G1 X94.257 Y114.002 E0.01243
G1 X93.862 Y113.366 E0.01245
G1 X93.538 Y112.692 E0.01244
G1 X93.288 Y111.987 E0.01244
G1 X93.114 Y111.259 E0.01245
G1 X93.019 Y110.517 E0.01244
G1 X93 Y110 E0.0086
G1 X93 Y100 E0.1663
G1 X93.04 Y99.253 E0.01244
G1 X93.159 Y98.515 E0.01243
G1 X93.357 Y97.793 E0.01245
G1 X93.63 Y97.097 E0.01243
G1 X93.977 Y96.434 E0.01244
G1 X94.392 Y95.811 E0.01245
G1 X94.871 Y95.237 E0.01243
G1 X95.408 Y94.716 E0.01244
G0 F3600 X95.265 Y95.402
G1 F3000 X95.799 Y94.909 E0.01209
G1 X96.384 Y94.479 E0.01207
G1 X97.013 Y94.115 E0.01209
G1 X97.678 Y93.822 E0.01208
G1 X98.371 Y93.604 E0.01208
G1 X99.083 Y93.464 E0.01207
G1 X100 Y93.4 E0.01529
G1 X110 Y93.4 E0.1663
G1 X110.725 Y93.44 E0.01208
G1 X111.442 Y93.559 E0.01209
G1 X112.141 Y93.757 E0.01208
G1 X112.814 Y94.03 E0.01208
G1 X113.453 Y94.375 E0.01208
G1 X114.05 Y94.789 E0.01208
G1 X114.598 Y95.265 E0.01207
G1 X115.091 Y95.799 E0.01209
G1 X115.521 Y96.384 E0.01207
G1 X115.885 Y97.013 E0.01209
G1 X116.178 Y97.678 E0.01208
G1 X116.396 Y98.371 E0.01208
G1 X116.536 Y99.083 E0.01207
G1 X116.6 Y100 E0.01529
G1 X116.6 Y110 E0.1663
G1 X116.56 Y110.725 E0.01208
G1 X116.441 Y111.442 E0.01209
G1 X116.243 Y112.141 E0.01208
G1 X115.97 Y112.814 E0.01208
G1 X115.625 Y113.453 E0.01208
G1 X115.211 Y114.05 E0.01208
G1 X114.735 Y114.598 E0.01207
G1 X114.201 Y115.091 E0.01209
G1 X113.616 Y115.521 E0.01207
G1 X112.987 Y115.885 E0.01209
G1 X112.322 Y116.178 E0.01208
G1 X111.629 Y116.396 E0.01208
G1 X110.917 Y116.536 E0.01207
G1 X110 Y116.6 E0.01529
G1 X100 Y116.6 E0.1663
G1 X99.275 Y116.56 E0.01208
G1 X98.558 Y116.441 E0.01209
G1 X97.859 Y116.243 E0.01208
G1 X97.186 Y115.97 E0.01208
G1 X96.547 Y115.625 E0.01208
G1 X95.95 Y115.211 E0.01208
G1 X95.402 Y114.735 E0.01207
G1 X94.909 Y114.201 E0.01209
G1 X94.479 Y113.616 E0.01207
G1 X94.115 Y112.987 E0.01209
G1 X93.822 Y112.322 E0.01208
G1 X93.604 Y111.629 E0.01208
G1 X93.464 Y110.917 E0.01207
G1 X93.4 Y110 E0.01529
G1 X93.4 Y100 E0.1663
G1 X93.44 Y99.275 E0.01208
G1 X93.559 Y98.558 E0.01209
G1 X93.757 Y97.859 E0.01208
G1 X94.03 Y97.186 E0.01208
G1 X94.375 Y96.547 E0.01208
G1 X94.789 Y95.95 E0.01208
G1 X95.265 Y95.402 E0.01207
G0 F3600 X95.659 Y95.573
G1 F3000 X96.189 Y95.109 E0.01171
G1 X96.768 Y94.709 E0.0117
G1 X97.389 Y94.377 E0.01171
G1 X98.043 Y94.117 E0.0117
G1 X98.723 Y93.933 E0.01172
G1 X99.419 Y93.827 E0.01171
G1 X100 Y93.8 E0.00967
G1 X110 Y93.8 E0.1663
G1 X110.703 Y93.84 E0.01171
G1 X111.397 Y93.959 E0.01171
G1 X112.072 Y94.157 E0.0117
G1 X112.721 Y94.429 E0.0117
G1 X113.335 Y94.774 E0.01171
G1 X113.906 Y95.185 E0.0117
G1 X114.427 Y95.659 E0.01171
G1 X114.891 Y96.189 E0.01171
G1 X115.291 Y96.768 E0.0117
G1 X115.623 Y97.389 E0.01171
G1 X115.883 Y98.043 E0.0117
G1 X116.067 Y98.723 E0.01172
G1 X116.173 Y99.419 E0.01171
G1 X116.2 Y100 E0.00967
G1 X116.2 Y110 E0.1663
G1 X116.16 Y110.703 E0.01171
G1 X116.041 Y111.397 E0.01171
G1 X115.843 Y112.072 E0.0117
G1 X115.571 Y112.721 E0.0117
G1 X115.226 Y113.335 E0.01171
G1 X114.815 Y113.906 E0.0117
G1 X114.341 Y114.427 E0.01171
G1 X113.811 Y114.891 E0.01171
G1 X113.232 Y115.291 E0.0117
G1 X112.611 Y115.623 E0.01171
G1 X111.957 Y115.883 E0.0117
G1 X111.277 Y116.067 E0.01172
G1 X110.581 Y116.173 E0.01171
G1 X110 Y116.2 E0.00967
G1 X100 Y116.2 E0.1663
G1 X99.297 Y116.16 E0.01171
G1 X98.603 Y116.041 E0.01171
G1 X97.928 Y115.843 E0.0117
G1 X97.279 Y115.571 E0.0117
G1 X96.665 Y115.226 E0.01171
G1 X96.094 Y114.815 E0.0117
G1 X95.573 Y114.341 E0.01171
G1 X95.109 Y113.811 E0.01171
G1 X94.709 Y113.232 E0.0117
G1 X94.377 Y112.611 E0.01171
G1 X94.117 Y111.957 E0.0117
G1 X93.933 Y111.277 E0.01172
G1 X93.827 Y110.581 E0.01171
G1 X93.8 Y110 E0.00967
G1 X93.8 Y100 E0.1663
G1 X93.84 Y99.297 E0.01171
G1 X93.959 Y98.603 E0.01171
G1 X94.157 Y97.928 E0.0117
G1 X94.429 Y97.279 E0.0117
G1 X94.774 Y96.665 E0.01171
G1 X95.185 Y96.094 E0.0117
G1 X95.659 Y95.573 E0.01171
G0 F3600 X96.053 Y95.751
G1 F3000 X96.578 Y95.317 E0.01133
G1 X97.15 Y94.948 E0.01132
G1 X97.762 Y94.649 E0.01133
G1 X98.404 Y94.424 E0.01131
G1 X99.069 Y94.275 E0.01133
G1 X100 Y94.2 E0.01553
G1 X110 Y94.2 E0.1663
G1 X110.68 Y94.24 E0.01133
G1 X111.35 Y94.359 E0.01132
G1 X112.002 Y94.556 E0.01133
G1 X112.626 Y94.828 E0.01132
G1 X113.214 Y95.172 E0.01133
G1 X113.758 Y95.582 E0.01133
G1 X114.249 Y96.053 E0.01131
G1 X114.683 Y96.578 E0.01133
G1 X115.052 Y97.15 E0.01132
G1 X115.351 Y97.762 E0.01133
G1 X115.576 Y98.404 E0.01131
G1 X115.725 Y99.069 E0.01133
G1 X115.8 Y100 E0.01553
G1 X115.8 Y110 E0.1663
G1 X115.76 Y110.68 E0.01133
G1 X115.641 Y111.35 E0.01132
G1 X115.444 Y112.002 E0.01133
G1 X115.172 Y112.626 E0.01132
G1 X114.828 Y113.214 E0.01133
G1 X114.418 Y113.758 E0.01133
G1 X113.947 Y114.249 E0.01131
G1 X113.422 Y114.683 E0.01133
G1 X112.85 Y115.052 E0.01132
G1 X112.238 Y115.351 E0.01133
G1 X111.596 Y115.576 E0.01131
G1 X110.931 Y115.725 E0.01133
G1 X110 Y115.8 E0.01553
G1 X100 Y115.8 E0.1663
G1 X99.32 Y115.76 E0.01133
G1 X98.65 Y115.641 E0.01132
G1 X97.998 Y115.444 E0.01133
G1 X97.374 Y115.172 E0.01132
G1 X96.786 Y114.828 E0.01133
G1 X96.242 Y114.418 E0.01133
G1 X95.751 Y113.947 E0.01131
G1 X95.317 Y113.422 E0.01133
G1 X94.948 Y112.85 E0.01132
G1 X94.649 Y112.238 E0.01133
G1 X94.424 Y111.596 E0.01131
G1 X94.275 Y110.931 E0.01133
G1 X94.2 Y110 E0.01553
G1 X94.2 Y100 E0.1663
G1 X94.24 Y99.32 E0.01133
G1 X94.359 Y98.65 E0.01132
G1 X94.556 Y97.998 E0.01133
G1 X94.828 Y97.374 E0.01132
G1 X95.172 Y96.786 E0.01133
G1 X95.582 Y96.242 E0.01133
G1 X96.053 Y95.751 E0.01131
G0 F3600 X96.445 Y95.935
G1 F3000 X96.965 Y95.534 E0.01092
G1 X97.529 Y95.198 E0.01092
G1 X98.131 Y94.934 E0.01093
G1 X98.76 Y94.744 E0.01093
G1 X99.407 Y94.633 E0.01092
G1 X100 Y94.6 E0.00988
G1 X110 Y94.6 E0.1663
G1 X110.656 Y94.64 E0.01093
G1 X111.302 Y94.759 E0.01092
G1 X111.929 Y94.956 E0.01093
G1 X112.527 Y95.228 E0.01093
G1 X113.088 Y95.57 E0.01093
G1 X113.603 Y95.978 E0.01093
G1 X114.065 Y96.445 E0.01092
G1 X114.466 Y96.965 E0.01092
G1 X114.802 Y97.529 E0.01092
G1 X115.066 Y98.131 E0.01093
G1 X115.256 Y98.76 E0.01093
G1 X115.367 Y99.407 E0.01092
G1 X115.4 Y100 E0.00988
G1 X115.4 Y110 E0.1663
G1 X115.36 Y110.656 E0.01093
G1 X115.241 Y111.302 E0.01092
G1 X115.044 Y111.929 E0.01093
G1 X114.772 Y112.527 E0.01093
G1 X114.43 Y113.088 E0.01093
G1 X114.022 Y113.603 E0.01093
G1 X113.555 Y114.065 E0.01092
G1 X113.035 Y114.466 E0.01092
G1 X112.471 Y114.802 E0.01092
G1 X111.869 Y115.066 E0.01093
G1 X111.24 Y115.256 E0.01093
G1 X110.593 Y115.367 E0.01092
G1 X110 Y115.4 E0.00988
G1 X100 Y115.4 E0.1663
G1 X99.344 Y115.36 E0.01093
G1 X98.698 Y115.241 E0.01092
G1 X98.071 Y115.044 E0.01093
G1 X97.473 Y114.772 E0.01093
G1 X96.912 Y114.43 E0.01093
G1 X96.397 Y114.022 E0.01093
G1 X95.935 Y113.555 E0.01092
G1 X95.534 Y113.035 E0.01092
G1 X95.198 Y112.471 E0.01092
G1 X94.934 Y111.869 E0.01093
G1 X94.744 Y111.24 E0.01093
G1 X94.633 Y110.593 E0.01092
G1 X94.6 Y110 E0.00988
G1 X94.6 Y100 E0.1663
G1 X94.64 Y99.344 E0.01093
G1 X94.759 Y98.698 E0.01092
G1 X94.956 Y98.071 E0.01093
G1 X95.228 Y97.473 E0.01093
G1 X95.57 Y96.912 E0.01093
G1 X95.978 Y96.397 E0.01093
G1 X96.445 Y95.935 E0.01092
G0 F3600 X96.373 Y96.559
G1 F3000 X96.836 Y96.129 E0.01051
G1 X97.35 Y95.76 E0.01052
G1 X97.906 Y95.46 E0.01051
G1 X98.495 Y95.232 E0.0105
G1 X99.109 Y95.08 E0.01052
G1 X100 Y95 E0.01488
G1 X110 Y95 E0.1663
G1 X110.631 Y95.04 E0.01051
G1 X111.252 Y95.159 E0.01052
G1 X111.852 Y95.356 E0.0105
G1 X112.424 Y95.627 E0.01053
G1 X112.956 Y95.967 E0.0105
G1 X113.441 Y96.373 E0.01052
G1 X113.871 Y96.836 E0.01051
G1 X114.24 Y97.35 E0.01052
G1 X114.54 Y97.906 E0.01051
G1 X114.768 Y98.495 E0.0105
G1 X114.92 Y99.109 E0.01052
G1 X115 Y100 E0.01488
G1 X115 Y110 E0.1663
G1 X114.96 Y110.631 E0.01051
G1 X114.841 Y111.252 E0.01052
G1 X114.644 Y111.852 E0.0105
G1 X114.373 Y112.424 E0.01053
G1 X114.033 Y112.956 E0.0105
G1 X113.627 Y113.441 E0.01052
G1 X113.164 Y113.871 E0.01051
G1 X112.65 Y114.24 E0.01052
G1 X112.094 Y114.54 E0.01051
G1 X111.505 Y114.768 E0.0105
G1 X110.891 Y114.92 E0.01052
G1 X110 Y115 E0.01488
G1 X100 Y115 E0.1663
G1 X99.369 Y114.96 E0.01051
G1 X98.748 Y114.841 E0.01052
G1 X98.148 Y114.644 E0.0105
G1 X97.576 Y114.373 E0.01053
G1 X97.044 Y114.033 E0.0105
G1 X96.559 Y113.627 E0.01052
G1 X96.129 Y113.164 E0.01051
G1 X95.76 Y112.65 E0.01052
G1 X95.46 Y112.094 E0.01051
G1 X95.232 Y111.505 E0.0105
G1 X95.08 Y110.891 E0.01052
G1 X95 Y110 E0.01488
G1 X95 Y100 E0.1663
G1 X95.04 Y99.369 E0.01051
G1 X95.159 Y98.748 E0.01052
G1 X95.356 Y98.148 E0.0105
G1 X95.627 Y97.576 E0.01053
G1 X95.967 Y97.044 E0.0105
G1 X96.373 Y96.559 E0.01052
G0 F3600 X96.767 Y96.728
G1 F3000 X97.225 Y96.331 E0.01008
G1 X97.732 Y95.998 E0.01009
G1 X98.278 Y95.734 E0.01009
G1 X98.854 Y95.545 E0.01008
G1 X99.45 Y95.433 E0.01009
G1 X100 Y95.4 E0.00916
G1 X110 Y95.4 E0.1663
G1 X110.605 Y95.44 E0.01008
G1 X111.199 Y95.559 E0.01007
G1 X111.773 Y95.755 E0.01009
G1 X112.316 Y96.026 E0.01009
G1 X112.819 Y96.365 E0.01009
G1 X113.272 Y96.767 E0.01007
G1 X113.669 Y97.225 E0.01008
G1 X114.002 Y97.732 E0.01009
G1 X114.266 Y98.278 E0.01009
G1 X114.455 Y98.854 E0.01008
G1 X114.567 Y99.45 E0.01009
G1 X114.6 Y100 E0.00916
G1 X114.6 Y110 E0.1663
G1 X114.56 Y110.605 E0.01008
G1 X114.441 Y111.199 E0.01007
G1 X114.245 Y111.773 E0.01009
G1 X113.974 Y112.316 E0.01009
G1 X113.635 Y112.819 E0.01009
G1 X113.233 Y113.272 E0.01007
G1 X112.775 Y113.669 E0.01008
G1 X112.268 Y114.002 E0.01009
G1 X111.722 Y114.266 E0.01009
G1 X111.146 Y114.455 E0.01008
G1 X110.55 Y114.567 E0.01009
G1 X110 Y114.6 E0.00916
G1 X100 Y114.6 E0.1663
G1 X99.395 Y114.56 E0.01008
G1 X98.801 Y114.441 E0.01007
G1 X98.227 Y114.245 E0.01009
G1 X97.684 Y113.974 E0.01009
G1 X97.181 Y113.635 E0.01009
G1 X96.728 Y113.233 E0.01007
G1 X96.331 Y112.775 E0.01008
G1 X95.998 Y112.268 E0.01009
G1 X95.734 Y111.722 E0.01009
G1 X95.545 Y111.146 E0.01008
G1 X95.433 Y110.55 E0.01009
G1 X95.4 Y110 E0.00916
G1 X95.4 Y100 E0.1663
G1 X95.44 Y99.395 E0.01008
G1 X95.559 Y98.801 E0.01007
G1 X95.755 Y98.227 E0.01009
G1 X96.026 Y97.684 E0.01009
G1 X96.365 Y97.181 E0.01009
G1 X96.767 Y96.728 E0.01007
G0 F3600 X97.16 Y96.906
G1 F3000 X97.613 Y96.544 E0.00964
G1 X98.111 Y96.249 E0.00963
G1 X98.645 Y96.024 E0.00964
G1 X99.205 Y95.876 E0.00963
G1 X100 Y95.8 E0.01328
G1 X110 Y95.8 E0.1663
