;Generated with Cura_SteamEngine 15.01
; Default start code
G28 ; Home extruder
G1 Z15 F5000
M107 ; Turn off fan
G90 ; Absolute positioning
M82 ; Extruder in absolute mode
M190 S50
; Activate all used extruder
M104 T0 S210
G92 E0 ; Reset extruder position
; Wait for all used extruders to reach temperature
M109 T0 S210
;Layer count: 10
;LAYER:0
M107
G0 F3600 X24.826 Y24.826 Z0.200
;TYPE:SKIRT
G1 F1800 X175.174 Y24.826 E4.73869
G1 X175.174 Y175.174 E9.47738
G1 X24.826 Y175.174 E14.21607
G1 X24.826 Y24.826 E18.95475
G0 F3600 X25.225 Y25.225
G1 F1800 X174.775 Y25.225 E23.66829
G1 X174.775 Y174.775 E28.38183
G1 X25.225 Y174.775 E33.09537
G1 X25.225 Y25.225 E37.80890
G0 F3600 X25.624 Y25.624
G1 F1800 X174.376 Y25.624 E42.49729
G1 X174.376 Y174.376 E47.18567
G1 X25.624 Y174.376 E51.87406
G1 X25.624 Y25.624 E56.56245
G0 F3600 X26.023 Y26.023
G1 F1800 X173.977 Y26.023 E61.22568
G1 X173.977 Y173.977 E65.88891
G1 X26.023 Y173.977 E70.55215
G1 X26.023 Y26.023 E75.21538
G0 F3600 X26.422 Y26.422
G1 F1800 X173.578 Y26.422 E79.85347
G1 X173.578 Y173.578 E84.49155
G1 X26.422 Y173.578 E89.12963
G1 X26.422 Y26.422 E93.76771
G0 F3600 X26.821 Y26.821
G1 F1800 X173.179 Y26.821 E98.38065
G1 X173.179 Y173.179 E102.99358
G1 X26.821 Y173.179 E107.60651
G1 X26.821 Y26.821 E112.21944
G0 F3600 X27.220 Y27.220
G1 F1800 X172.780 Y27.220 E116.80722
G1 X172.780 Y172.780 E121.39500
G1 X27.220 Y172.780 E125.98278
G1 X27.220 Y27.220 E130.57056
G0 F3600 X27.619 Y27.619
G1 F1800 X172.381 Y27.619 E135.13319
G1 X172.381 Y172.381 E139.69581
G1 X27.619 Y172.381 E144.25844
G1 X27.619 Y27.619 E148.82107
G0 F3600 X28.018 Y28.018
G1 F1800 X171.982 Y28.018 E153.35855
G1 X171.982 Y171.982 E157.89603
G1 X28.018 Y171.982 E162.43350
G1 X28.018 Y28.018 E166.97098
G0 F3600 X28.417 Y28.417
G1 F1800 X171.583 Y28.417 E171.48330
G1 X171.583 Y171.583 E175.99563
G1 X28.417 Y171.583 E180.50795
G1 X28.417 Y28.417 E185.02028
G0 F3600 X28.816 Y28.816
G1 F1800 X171.184 Y28.816 E189.50745
G1 X171.184 Y171.184 E193.99463
G1 X28.816 Y171.184 E198.48180
G1 X28.816 Y28.816 E202.96898
G0 F3600 X29.215 Y29.215
G1 F1800 X170.785 Y29.215 E207.43100
G1 X170.785 Y170.785 E211.89302
G1 X29.215 Y170.785 E216.35504
G1 X29.215 Y29.215 E220.81707
G0 F3600 X29.614 Y29.614
G1 F1800 X170.386 Y29.614 E225.25394
G1 X170.386 Y170.386 E229.69081
G1 X29.614 Y170.386 E234.12768
G1 X29.614 Y29.614 E238.56455
G0 F3600 X30.013 Y30.013
G1 F1800 X169.987 Y30.013 E242.97627
G1 X169.987 Y169.987 E247.38799
G1 X30.013 Y169.987 E251.79971
G1 X30.013 Y30.013 E256.21143
G0 F3600 X30.412 Y30.412
G1 F1800 X169.588 Y30.412 E260.59800
G1 X169.588 Y169.588 E264.98456
G1 X30.412 Y169.588 E269.37113
G1 X30.412 Y30.412 E273.75770
G0 F3600 X30.811 Y30.811
G1 F1800 X169.189 Y30.811 E278.11912
G1 X169.189 Y169.189 E282.48053
G1 X30.811 Y169.189 E286.84195
G1 X30.811 Y30.811 E291.20337
G0 F3600 X31.210 Y31.210
G1 F1800 X168.790 Y31.210 E295.53963
G1 X168.790 Y168.790 E299.87590
G1 X31.210 Y168.790 E304.21216
G1 X31.210 Y31.210 E308.54843
G0 F3600 X31.609 Y31.609
G1 F1800 X168.391 Y31.609 E312.85954
G1 X168.391 Y168.391 E317.17065
G1 X31.609 Y168.391 E321.48177
G1 X31.609 Y31.609 E325.79288
G0 F3600 X32.008 Y32.008
G1 F1800 X167.992 Y32.008 E330.07884
G1 X167.992 Y167.992 E334.36480
G1 X32.008 Y167.992 E338.65077
G1 X32.008 Y32.008 E342.93673
G0 F3600 X32.407 Y32.407
G1 F1800 X167.593 Y32.407 E347.19754
G1 X167.593 Y167.593 E351.45835
G1 X32.407 Y167.593 E355.71916
G1 X32.407 Y32.407 E359.97997
G0 F3600 X32.806 Y32.806
G1 F1800 X167.194 Y32.806 E364.21563
G1 X167.194 Y167.194 E368.45129
G1 X32.806 Y167.194 E372.68695
G1 X32.806 Y32.806 E376.92261
G0 F3600 X33.205 Y33.205
G1 F1800 X166.795 Y33.205 E381.13312
G1 X166.795 Y166.795 E385.34362
G1 X33.205 Y166.795 E389.55413
G1 X33.205 Y33.205 E393.76464
G0 F3600 X33.604 Y33.604
G1 F1800 X166.396 Y33.604 E397.95000
G1 X166.396 Y166.396 E402.13535
G1 X33.604 Y166.396 E406.32071
G1 X33.604 Y33.604 E410.50606
G0 F3600 X34.003 Y34.003
G1 F1800 X165.997 Y34.003 E414.66627
G1 X165.997 Y165.997 E418.82647
G1 X34.003 Y165.997 E422.98668
G1 X34.003 Y34.003 E427.14688
G0 F3600 X34.402 Y34.402
G1 F1800 X165.598 Y34.402 E431.28194
G1 X165.598 Y165.598 E435.41699
G1 X34.402 Y165.598 E439.55204
G1 X34.402 Y34.402 E443.68710
G0 F3600 X34.801 Y34.801
G1 F1800 X165.199 Y34.801 E447.79700
G1 X165.199 Y165.199 E451.90690
G1 X34.801 Y165.199 E456.01680
G1 X34.801 Y34.801 E460.12670
G0 F3600 X35.499 Y35.409
G0 X35.997 Y35.997
;TYPE:WALL-INNER
G1 F1800 X164.003 Y35.997 E464.16121
G1 X164.003 Y164.003 E468.19572
G1 X35.997 Y164.003 E472.23024
G1 X35.997 Y35.997 E476.26475
G0 F3600 X35.598 Y35.598
G1 F1800 X164.402 Y35.598 E480.32441
G1 X164.402 Y164.402 E484.38407
G1 X35.598 Y164.402 E488.44373
G1 X35.598 Y35.598 E492.50339
G0 F3600 X35.199 Y35.199
;TYPE:WALL-OUTER
G1 F1500 X164.801 Y35.199 E496.58821
G1 X164.801 Y164.801 E500.67302
G1 X35.199 Y164.801 E504.75783
G1 X35.199 Y35.199 E508.84265
G0 F3600 X35.499 Y35.409
G0 X36.414 Y36.133
;TYPE:SKIN
G1 F1800 X163.866 Y163.584 E514.52359
G0 F3600 X163.583 Y163.866
G1 F1800 X36.132 Y36.415 E520.20451
G0 F3600 X36.132 Y36.979
G1 F1800 X163.019 Y163.866 E525.86029
G0 F3600 X162.454 Y163.866
G1 F1800 X36.132 Y37.543 E531.49091
G0 F3600 X36.132 Y38.108
G1 F1800 X161.890 Y163.866 E537.09637
G0 F3600 X161.326 Y163.866
G1 F1800 X36.132 Y38.672 E542.67669
G0 F3600 X36.132 Y39.236
G1 F1800 X160.762 Y163.866 E548.23187
G0 F3600 X160.197 Y163.866
G1 F1800 X36.132 Y39.800 E553.76189
G0 F3600 X36.978 Y36.133
G1 F1800 X163.866 Y163.020 E559.41769
G0 F3600 X163.866 Y162.456
G1 F1800 X37.543 Y36.133 E565.04834
G0 F3600 X38.107 Y36.133
G1 F1800 X163.866 Y161.892 E570.65384
G0 F3600 X163.866 Y161.327
G1 F1800 X38.671 Y36.133 E576.23418
G0 F3600 X39.235 Y36.133
G1 F1800 X163.866 Y160.763 E581.78938
G0 F3600 X163.866 Y160.199
G1 F1800 X39.800 Y36.133 E587.31942
G0 F3600 X40.364 Y36.133
G1 F1800 X163.866 Y159.635 E592.82432
G0 F3600 X163.866 Y159.070
G1 F1800 X40.928 Y36.133 E598.30406
G0 F3600 X41.493 Y36.133
G1 F1800 X163.866 Y158.506 E603.75864
G0 F3600 X163.866 Y157.942
G1 F1800 X42.057 Y36.133 E609.18808
G0 F3600 X42.621 Y36.133
G1 F1800 X163.866 Y157.377 E614.59235
G0 F3600 X163.866 Y156.813
G1 F1800 X43.185 Y36.133 E619.97149
G0 F3600 X43.750 Y36.133
G1 F1800 X163.866 Y156.249 E625.32547
G0 F3600 X163.866 Y155.685
G1 F1800 X44.314 Y36.133 E630.65430
G0 F3600 X44.878 Y36.133
G1 F1800 X163.866 Y155.120 E635.95798
G0 F3600 X163.866 Y154.556
G1 F1800 X45.442 Y36.133 E641.23651
G0 F3600 X46.007 Y36.133
G1 F1800 X163.866 Y153.992 E646.48989
G0 F3600 X163.866 Y153.428
G1 F1800 X46.571 Y36.133 E651.71812
G0 F3600 X47.135 Y36.133
G1 F1800 X163.866 Y152.863 E656.92119
G0 F3600 X163.866 Y152.299
G1 F1800 X47.700 Y36.133 E662.09910
G0 F3600 X48.264 Y36.133
G1 F1800 X163.866 Y151.735 E667.25187
G0 F3600 X163.866 Y151.170
G1 F1800 X48.828 Y36.133 E672.37948
G0 F3600 X49.392 Y36.133
G1 F1800 X163.866 Y150.606 E677.48195
G0 F3600 X163.866 Y150.042
G1 F1800 X49.957 Y36.133 E682.55926
G0 F3600 X50.521 Y36.133
G1 F1800 X163.866 Y149.478 E687.61143
G0 F3600 X163.866 Y148.913
G1 F1800 X51.085 Y36.133 E692.63844
G0 F3600 X51.649 Y36.133
G1 F1800 X163.866 Y148.349 E697.64031
G0 F3600 X163.866 Y147.785
G1 F1800 X52.214 Y36.133 E702.61701
G0 F3600 X52.778 Y36.133
G1 F1800 X163.866 Y147.221 E707.56858
G0 F3600 X163.866 Y146.656
G1 F1800 X53.342 Y36.133 E712.49499
G0 F3600 X53.906 Y36.133
G1 F1800 X163.866 Y146.092 E717.39625
G0 F3600 X163.866 Y145.528
G1 F1800 X54.471 Y36.133 E722.27236
G0 F3600 X55.035 Y36.133
G1 F1800 X163.866 Y144.963 E727.12330
G0 F3600 X163.866 Y144.399
G1 F1800 X55.599 Y36.133 E731.94910
G0 F3600 X56.164 Y36.133
G1 F1800 X163.866 Y143.835 E736.74974
G0 F3600 X163.866 Y143.271
G1 F1800 X56.728 Y36.133 E741.52525
G0 F3600 X57.292 Y36.133
G1 F1800 X163.866 Y142.706 E746.27559
G0 F3600 X163.866 Y142.142
G1 F1800 X57.856 Y36.133 E751.00079
G0 F3600 X58.421 Y36.133
G1 F1800 X163.866 Y141.578 E755.70083
G0 F3600 X163.866 Y141.014
G1 F1800 X58.985 Y36.133 E760.37573
G0 F3600 X59.549 Y36.133
G1 F1800 X163.866 Y140.449 E765.02547
G0 F3600 X163.866 Y139.885
G1 F1800 X60.113 Y36.133 E769.65006
G0 F3600 X60.678 Y36.133
G1 F1800 X163.866 Y139.321 E774.24950
G0 F3600 X163.866 Y138.756
G1 F1800 X61.242 Y36.133 E778.82378
G0 F3600 X61.806 Y36.133
G1 F1800 X163.866 Y138.192 E783.37291
G0 F3600 X163.866 Y137.628
G1 F1800 X62.371 Y36.133 E787.89689
G0 F3600 X62.935 Y36.133
G1 F1800 X163.866 Y137.064 E792.39572
G0 F3600 X163.866 Y136.499
G1 F1800 X63.499 Y36.133 E796.86940
G0 F3600 X64.063 Y36.133
G1 F1800 X163.866 Y135.935 E801.31793
G0 F3600 X163.866 Y135.371
G1 F1800 X64.628 Y36.133 E805.74130
G0 F3600 X65.192 Y36.133
G1 F1800 X163.866 Y134.807 E810.13954
G0 F3600 X163.866 Y134.242
G1 F1800 X65.756 Y36.133 E814.51261
G0 F3600 X66.320 Y36.133
G1 F1800 X163.866 Y133.678 E818.86054
G0 F3600 X163.866 Y133.114
G1 F1800 X66.885 Y36.133 E823.18331
G0 F3600 X67.449 Y36.133
G1 F1800 X163.866 Y132.549 E827.48092
G0 F3600 X163.866 Y131.985
G1 F1800 X68.013 Y36.133 E831.75339
G0 F3600 X68.578 Y36.133
G1 F1800 X163.866 Y131.421 E836.00070
G0 F3600 X163.866 Y130.857
G1 F1800 X69.142 Y36.133 E840.22287
G0 F3600 X69.706 Y36.133
G1 F1800 X163.866 Y130.292 E844.41987
G0 F3600 X163.866 Y129.728
G1 F1800 X70.270 Y36.133 E848.59174
G0 F3600 X70.835 Y36.133
G1 F1800 X163.866 Y129.164 E852.73845
G0 F3600 X163.866 Y128.600
G1 F1800 X71.399 Y36.133 E856.86001
G0 F3600 X71.963 Y36.133
G1 F1800 X163.866 Y128.035 E860.95642
G0 F3600 X163.866 Y127.471
G1 F1800 X72.527 Y36.133 E865.02768
G0 F3600 X73.092 Y36.133
G1 F1800 X163.866 Y126.907 E869.07379
G0 F3600 X163.866 Y126.343
G1 F1800 X73.656 Y36.133 E873.09475
G0 F3600 X74.220 Y36.133
G1 F1800 X163.866 Y125.778 E877.09055
G0 F3600 X163.866 Y125.214
G1 F1800 X74.785 Y36.133 E881.06119
G0 F3600 X75.349 Y36.133
G1 F1800 X163.866 Y124.650 E885.00669
G0 F3600 X163.866 Y124.085
G1 F1800 X75.913 Y36.133 E888.92703
G0 F3600 X76.477 Y36.133
G1 F1800 X163.866 Y123.521 E892.82223
G0 F3600 X163.866 Y122.957
G1 F1800 X77.042 Y36.133 E896.69227
G0 F3600 X77.606 Y36.133
G1 F1800 X163.866 Y122.393 E900.53717
G0 F3600 X163.866 Y121.828
G1 F1800 X78.170 Y36.133 E904.35691
G0 F3600 X78.734 Y36.133
G1 F1800 X163.866 Y121.264 E908.15151
G0 F3600 X163.866 Y120.700
G1 F1800 X79.299 Y36.133 E911.92094
G0 F3600 X79.863 Y36.133
G1 F1800 X163.866 Y120.136 E915.66524
G0 F3600 X163.866 Y119.571
G1 F1800 X80.427 Y36.133 E919.38438
G0 F3600 X80.992 Y36.133
G1 F1800 X163.866 Y119.007 E923.07835
G0 F3600 X163.866 Y118.443
G1 F1800 X81.556 Y36.133 E926.74719
G0 F3600 X82.120 Y36.133
G1 F1800 X163.866 Y117.878 E930.39086
G0 F3600 X163.866 Y117.314
G1 F1800 X82.684 Y36.133 E934.00939
G0 F3600 X83.249 Y36.133
G1 F1800 X163.866 Y116.750 E937.60276
G0 F3600 X163.866 Y116.186
G1 F1800 X83.813 Y36.133 E941.17100
G0 F3600 X84.377 Y36.133
G1 F1800 X163.866 Y115.621 E944.71407
G0 F3600 X163.866 Y115.057
G1 F1800 X84.941 Y36.133 E948.23200
G0 F3600 X85.506 Y36.133
G1 F1800 X163.866 Y114.493 E951.72477
G0 F3600 X163.866 Y113.929
G1 F1800 X86.070 Y36.133 E955.19240
G0 F3600 X86.634 Y36.133
G1 F1800 X163.866 Y113.364 E958.63487
G0 F3600 X163.866 Y112.800
G1 F1800 X87.198 Y36.133 E962.05220
G0 F3600 X87.763 Y36.133
G1 F1800 X163.866 Y112.236 E965.44436
G0 F3600 X163.866 Y111.671
G1 F1800 X88.327 Y36.133 E968.81137
G0 F3600 X88.891 Y36.133
G1 F1800 X163.866 Y111.107 E972.15324
G0 F3600 X163.866 Y110.543
G1 F1800 X89.456 Y36.133 E975.46994
G0 F3600 X90.020 Y36.133
G1 F1800 X163.866 Y109.979 E978.76151
G0 F3600 X163.866 Y109.414
G1 F1800 X90.584 Y36.133 E982.02791
G0 F3600 X91.148 Y36.133
G1 F1800 X163.866 Y108.850 E985.26917
G0 F3600 X163.866 Y108.286
G1 F1800 X91.713 Y36.133 E988.48528
G0 F3600 X92.277 Y36.133
G1 F1800 X163.866 Y107.722 E991.67624
G0 F3600 X163.866 Y107.157
G1 F1800 X92.841 Y36.133 E994.84204
G0 F3600 X93.405 Y36.133
G1 F1800 X163.866 Y106.593 E997.98270
G0 F3600 X163.866 Y106.029
G1 F1800 X93.970 Y36.133 E1001.09820
G0 F3600 X94.534 Y36.133
G1 F1800 X163.866 Y105.464 E1004.18854
G0 F3600 X163.866 Y104.900
G1 F1800 X95.098 Y36.133 E1007.25374
G0 F3600 X95.663 Y36.133
G1 F1800 X163.866 Y104.336 E1010.29378
G0 F3600 X163.866 Y103.772
G1 F1800 X96.227 Y36.133 E1013.30868
G0 F3600 X96.791 Y36.133
G1 F1800 X163.866 Y103.207 E1016.29842
G0 F3600 X163.866 Y102.643
G1 F1800 X97.355 Y36.133 E1019.26301
G0 F3600 X97.920 Y36.133
G1 F1800 X163.866 Y102.079 E1022.20245
G0 F3600 X163.866 Y101.515
G1 F1800 X98.484 Y36.133 E1025.11675
G0 F3600 X99.048 Y36.133
G1 F1800 X163.866 Y100.950 E1028.00588
G0 F3600 X163.866 Y100.386
G1 F1800 X99.612 Y36.133 E1030.86988
G0 F3600 X100.177 Y36.133
G1 F1800 X163.866 Y99.822 E1033.70871
G0 F3600 X163.866 Y99.257
G1 F1800 X100.741 Y36.133 E1036.52238
G0 F3600 X101.305 Y36.133
G1 F1800 X163.866 Y98.693 E1039.31091
G0 F3600 X163.866 Y98.129
G1 F1800 X101.870 Y36.133 E1042.07428
G0 F3600 X102.434 Y36.133
G1 F1800 X163.866 Y97.565 E1044.81252
G0 F3600 X163.866 Y97.000
G1 F1800 X102.998 Y36.133 E1047.52559
G0 F3600 X103.562 Y36.133
G1 F1800 X163.866 Y96.436 E1050.21352
G0 F3600 X163.866 Y95.872
G1 F1800 X104.127 Y36.133 E1052.87629
G0 F3600 X104.691 Y36.133
G1 F1800 X163.866 Y95.308 E1055.51391
G0 F3600 X163.866 Y94.743
G1 F1800 X105.255 Y36.133 E1058.12638
G0 F3600 X105.819 Y36.133
G1 F1800 X163.866 Y94.179 E1060.71371
G0 F3600 X163.866 Y93.615
G1 F1800 X106.384 Y36.133 E1063.27588
G0 F3600 X106.948 Y36.133
G1 F1800 X163.866 Y93.051 E1065.81290
G0 F3600 X163.866 Y92.486
G1 F1800 X107.512 Y36.133 E1068.32477
G0 F3600 X108.077 Y36.133
G1 F1800 X163.866 Y91.922 E1070.81147
G0 F3600 X163.866 Y91.358
G1 F1800 X108.641 Y36.133 E1073.27304
G0 F3600 X109.205 Y36.133
G1 F1800 X163.866 Y90.793 E1075.70944
G0 F3600 X163.866 Y90.229
G1 F1800 X109.769 Y36.133 E1078.12071
G0 F3600 X110.334 Y36.133
G1 F1800 X163.866 Y89.665 E1080.50681
G0 F3600 X163.866 Y89.101
G1 F1800 X110.898 Y36.133 E1082.86777
G0 F3600 X111.462 Y36.133
G1 F1800 X163.866 Y88.536 E1085.20357
G0 F3600 X163.866 Y87.972
G1 F1800 X112.026 Y36.133 E1087.51423
G0 F3600 X112.591 Y36.133
G1 F1800 X163.866 Y87.408 E1089.79973
G0 F3600 X163.866 Y86.844
G1 F1800 X113.155 Y36.133 E1092.06009
G0 F3600 X113.719 Y36.133
G1 F1800 X163.866 Y86.279 E1094.29529
G0 F3600 X163.866 Y85.715
G1 F1800 X114.284 Y36.133 E1096.50533
G0 F3600 X114.848 Y36.133
G1 F1800 X163.866 Y85.151 E1098.69023
G0 F3600 X163.866 Y84.586
G1 F1800 X115.412 Y36.133 E1100.84996
G0 F3600 X115.976 Y36.133
G1 F1800 X163.866 Y84.022 E1102.98456
G0 F3600 X163.866 Y83.458
G1 F1800 X116.541 Y36.133 E1105.09399
G0 F3600 X117.105 Y36.133
G1 F1800 X163.866 Y82.894 E1107.17829
G0 F3600 X163.866 Y82.329
G1 F1800 X117.669 Y36.133 E1109.23742
G0 F3600 X118.233 Y36.133
G1 F1800 X163.866 Y81.765 E1111.27142
G0 F3600 X163.866 Y81.201
G1 F1800 X118.798 Y36.133 E1113.28025
G0 F3600 X119.362 Y36.133
G1 F1800 X163.866 Y80.637 E1115.26394
G0 F3600 X163.866 Y80.072
G1 F1800 X119.926 Y36.133 E1117.22248
G0 F3600 X120.490 Y36.133
G1 F1800 X163.866 Y79.508 E1119.15587
G0 F3600 X163.866 Y78.944
G1 F1800 X121.055 Y36.133 E1121.06410
G0 F3600 X121.619 Y36.133
G1 F1800 X163.866 Y78.379 E1122.94717
G0 F3600 X163.866 Y77.815
G1 F1800 X122.183 Y36.133 E1124.80510
G0 F3600 X122.748 Y36.133
G1 F1800 X163.866 Y77.251 E1126.63787
G0 F3600 X163.866 Y76.687
G1 F1800 X123.312 Y36.133 E1128.44549
G0 F3600 X123.876 Y36.133
G1 F1800 X163.866 Y76.122 E1130.22796
G0 F3600 X163.866 Y75.558
G1 F1800 X124.440 Y36.133 E1131.98529
G0 F3600 X125.005 Y36.133
G1 F1800 X163.866 Y74.994 E1133.71745
G0 F3600 X163.866 Y74.430
G1 F1800 X125.569 Y36.133 E1135.42448
G0 F3600 X126.133 Y36.133
G1 F1800 X163.866 Y73.865 E1137.10635
G0 F3600 X163.866 Y73.301
G1 F1800 X126.697 Y36.133 E1138.76307
G0 F3600 X127.262 Y36.133
G1 F1800 X163.866 Y72.737 E1140.39464
G0 F3600 X163.866 Y72.172
G1 F1800 X127.826 Y36.133 E1142.00104
G0 F3600 X128.390 Y36.133
G1 F1800 X163.866 Y71.608 E1143.58230
G0 F3600 X163.866 Y71.044
G1 F1800 X128.955 Y36.133 E1145.13840
G0 F3600 X129.519 Y36.133
G1 F1800 X163.866 Y70.480 E1146.66936
G0 F3600 X163.866 Y69.915
G1 F1800 X130.083 Y36.133 E1148.17516
G0 F3600 X130.647 Y36.133
