;FLAVOR:Marlin
;TIME:1608
;Filament used: 1.49099m
;Layer height: 0.1
;Generated with Cura_SteamEngine 3.3.1
M82 ;absolute extrusion mode
G21 ; set units to millimeters
G90 ; use absolute positioning
M82 ; absolute extrusion mode
M104 S200 ; set extruder temp
M140 S50 ; set bed temp
M190 S50 ; wait for bed temp
M109 S200 ; wait for extruder temp
M83 ; Relative extrusion mode
G28; home all without mesh bed level
G0 Z5
G0 Z0.4
G92 E0.0 ; reset extruder distance position
G1 X60.0 E9.0 F1000.0 ; intro line
G1 X100.0 E21.5 F1000.0 ; intro line
G92 E0.0 ; reset extruder distance position
M150 R200 U255 B200
M83 ;relative extrusion mode
G1 F1500 E-9
;LAYER_COUNT:201
;LAYER:0
M107
G0 F3600 X89.623 Y89.349 Z0.1
;TYPE:SKIRT
G1 F1500 E9
G1 F3000 X90.222 Y88.834 E0.01314
G1 X90.87 Y88.383 E0.01313
G1 X91.561 Y87.999 E0.01315
G1 X92.286 Y87.687 E0.01313
G1 X93.039 Y87.45 E0.01313
G1 X93.813 Y87.291 E0.01314
G1 X94.598 Y87.21 E0.01312
G1 X95 Y87.2 E0.00669
G1 X115 Y87.2 E0.3326
G1 X115.789 Y87.24 E0.01314
G1 X116.569 Y87.359 E0.01312
G1 X117.334 Y87.557 E0.01314
G1 X118.074 Y87.831 E0.01312
G1 X118.783 Y88.179 E0.01313
G1 X119.454 Y88.597 E0.01315
G1 X120.078 Y89.08 E0.01312
G1 X120.651 Y89.623 E0.01313
G1 X121.166 Y90.222 E0.01314
G1 X121.617 Y90.87 E0.01313
G1 X122.001 Y91.561 E0.01315
G1 X122.313 Y92.286 E0.01313
G1 X122.55 Y93.039 E0.01313
G1 X122.709 Y93.813 E0.01314
G1 X122.79 Y94.598 E0.01312
G1 X122.8 Y95 E0.00669
G1 X122.8 Y115 E0.3326
G1 X122.76 Y115.789 E0.01314
G1 X122.641 Y116.569 E0.01312
G1 X122.443 Y117.334 E0.01314
G1 X122.169 Y118.074 E0.01312
G1 X121.821 Y118.783 E0.01313
G1 X121.403 Y119.454 E0.01315
G1 X120.92 Y120.078 E0.01312
G1 X120.377 Y120.651 E0.01313
G1 X119.778 Y121.166 E0.01314
G1 X119.13 Y121.617 E0.01313
G1 X118.439 Y122.001 E0.01315
G1 X117.714 Y122.313 E0.01313
G1 X116.961 Y122.55 E0.01313
G1 X116.187 Y122.709 E0.01314
G1 X115.402 Y122.79 E0.01312
G1 X115 Y122.8 E0.00669
G1 X95 Y122.8 E0.3326
G1 X94.211 Y122.76 E0.01314
G1 X93.431 Y122.641 E0.01312
G1 X92.666 Y122.443 E0.01314
G1 X91.926 Y122.169 E0.01312
G1 X91.217 Y121.821 E0.01313
G1 X90.546 Y121.403 E0.01315
G1 X89.922 Y120.92 E0.01312
G1 X89.349 Y120.377 E0.01313
G1 X88.834 Y119.778 E0.01314
G1 X88.383 Y119.13 E0.01313
G1 X87.999 Y118.439 E0.01315
G1 X87.687 Y117.714 E0.01313
G1 X87.45 Y116.961 E0.01313
G1 X87.291 Y116.187 E0.01314
G1 X87.21 Y115.402 E0.01312
G1 X87.2 Y115 E0.00669
G1 X87.2 Y95 E0.3326
G1 X87.24 Y94.211 E0.01314
G1 X87.359 Y93.431 E0.01312
G1 X87.557 Y92.666 E0.01314
G1 X87.831 Y91.926 E0.01312
G1 X88.179 Y91.217 E0.01313
G1 X88.597 Y90.546 E0.01315
G1 X89.08 Y89.922 E0.01312
G1 X89.623 Y89.349 E0.01313
G0 F3600 X90.016 Y89.53
G1 F3000 X90.611 Y89.042 E0.0128
G1 X91.253 Y88.619 E0.01279
G1 X91.936 Y88.264 E0.0128
G1 X92.651 Y87.983 E0.01278
G1 X93.393 Y87.777 E0.01281
G1 X94.151 Y87.649 E0.01278
G1 X95 Y87.6 E0.01414
G1 X115 Y87.6 E0.3326
G1 X115.768 Y87.64 E0.01279
G1 X116.528 Y87.759 E0.01279
G1 X117.271 Y87.957 E0.01279
G1 X117.99 Y88.231 E0.0128
G1 X118.676 Y88.578 E0.01278
G1 X119.323 Y88.994 E0.01279
G1 X119.923 Y89.475 E0.01279
G1 X120.47 Y90.016 E0.01279
G1 X120.958 Y90.611 E0.0128
G1 X121.381 Y91.253 E0.01279
G1 X121.736 Y91.936 E0.0128
G1 X122.017 Y92.651 E0.01278
G1 X122.223 Y93.393 E0.01281
G1 X122.351 Y94.151 E0.01278
G1 X122.4 Y95 E0.01414
G1 X122.4 Y115 E0.3326
G1 X122.36 Y115.768 E0.01279
G1 X122.241 Y116.528 E0.01279
G1 X122.043 Y117.271 E0.01279
G1 X121.769 Y117.99 E0.0128
G1 X121.422 Y118.676 E0.01278
G1 X121.006 Y119.323 E0.01279
G1 X120.525 Y119.923 E0.01279
G1 X119.984 Y120.47 E0.01279
G1 X119.389 Y120.958 E0.0128
G1 X118.747 Y121.381 E0.01279
G1 X118.064 Y121.736 E0.0128
G1 X117.349 Y122.017 E0.01278
G1 X116.607 Y122.223 E0.01281
G1 X115.849 Y122.351 E0.01278
G1 X115 Y122.4 E0.01414
G1 X95 Y122.4 E0.3326
G1 X94.232 Y122.36 E0.01279
G1 X93.472 Y122.241 E0.01279
G1 X92.729 Y122.043 E0.01279
G1 X92.01 Y121.769 E0.0128
G1 X91.324 Y121.422 E0.01278
G1 X90.677 Y121.006 E0.01279
G1 X90.077 Y120.525 E0.01279
G1 X89.53 Y119.984 E0.01279
G1 X89.042 Y119.389 E0.0128
G1 X88.619 Y118.747 E0.01279
G1 X88.264 Y118.064 E0.0128
G1 X87.983 Y117.349 E0.01278
G1 X87.777 Y116.607 E0.01281
G1 X87.649 Y115.849 E0.01278
G1 X87.6 Y115 E0.01414
G1 X87.6 Y95 E0.3326
G1 X87.64 Y94.232 E0.01279
G1 X87.759 Y93.472 E0.01279
G1 X87.957 Y92.729 E0.01279
G1 X88.231 Y92.01 E0.0128
G1 X88.578 Y91.324 E0.01278
G1 X88.994 Y90.677 E0.01279
G1 X89.475 Y90.077 E0.01279
G1 X90.016 Y89.53 E0.01279
G0 F3600 X90.408 Y89.716
G1 F3000 X90.998 Y89.257 E0.01243
G1 X91.634 Y88.862 E0.01245
G1 X92.308 Y88.538 E0.01244
G1 X93.013 Y88.288 E0.01244
G1 X93.741 Y88.114 E0.01245
G1 X94.483 Y88.019 E0.01244
G1 X95 Y88 E0.0086
G1 X115 Y88 E0.3326
G1 X115.747 Y88.04 E0.01244
G1 X116.485 Y88.159 E0.01243
G1 X117.207 Y88.357 E0.01245
G1 X117.903 Y88.63 E0.01243
G1 X118.566 Y88.977 E0.01244
G1 X119.189 Y89.392 E0.01245
G1 X119.763 Y89.871 E0.01243
G1 X120.284 Y90.408 E0.01244
G1 X120.743 Y90.998 E0.01243
G1 X121.138 Y91.634 E0.01245
G1 X121.462 Y92.308 E0.01244
G1 X121.712 Y93.013 E0.01244
G1 X121.886 Y93.741 E0.01245
G1 X121.981 Y94.483 E0.01244
G1 X122 Y95 E0.0086
G1 X122 Y115 E0.3326
G1 X121.96 Y115.747 E0.01244
G1 X121.841 Y116.485 E0.01243
G1 X121.643 Y117.207 E0.01245
G1 X121.37 Y117.903 E0.01243
G1 X121.023 Y118.566 E0.01244
G1 X120.608 Y119.189 E0.01245
G1 X120.129 Y119.763 E0.01243
G1 X119.592 Y120.284 E0.01244
G1 X119.002 Y120.743 E0.01243
G1 X118.366 Y121.138 E0.01245
G1 X117.692 Y121.462 E0.01244
G1 X116.987 Y121.712 E0.01244
G1 X116.259 Y121.886 E0.01245
G1 X115.517 Y121.981 E0.01244
G1 X115 Y122 E0.0086
G1 X95 Y122 E0.3326
G1 X94.253 Y121.96 E0.01244
G1 X93.515 Y121.841 E0.01243
G1 X92.793 Y121.643 E0.01245
G1 X92.097 Y121.37 E0.01243
G1 X91.434 Y121.023 E0.01244
G1 X90.811 Y120.608 E0.01245
G1 X90.237 Y120.129 E0.01243
G1 X89.716 Y119.592 E0.01244
G1 X89.257 Y119.002 E0.01243
G1 X88.862 Y118.366 E0.01245
G1 X88.538 Y117.692 E0.01244
G1 X88.288 Y116.987 E0.01244
G1 X88.114 Y116.259 E0.01245
G1 X88.019 Y115.517 E0.01244
G1 X88 Y115 E0.0086
G1 X88 Y95 E0.3326
G1 X88.04 Y94.253 E0.01244
G1 X88.159 Y93.515 E0.01243
G1 X88.357 Y92.793 E0.01245
G1 X88.63 Y92.097 E0.01243
G1 X88.977 Y91.434 E0.01244
G1 X89.392 Y90.811 E0.01245
G1 X89.871 Y90.237 E0.01243
G1 X90.408 Y89.716 E0.01244
G0 F3600 X90.265 Y90.402
G1 F3000 X90.799 Y89.909 E0.01209
G1 X91.384 Y89.479 E0.01207
G1 X92.013 Y89.115 E0.01209
G1 X92.678 Y88.822 E0.01208
G1 X93.371 Y88.604 E0.01208
G1 X94.083 Y88.464 E0.01207
G1 X95 Y88.4 E0.01529
G1 X115 Y88.4 E0.3326
G1 X115.725 Y88.44 E0.01208
G1 X116.442 Y88.559 E0.01209
G1 X117.141 Y88.757 E0.01208
G1 X117.814 Y89.03 E0.01208
G1 X118.453 Y89.375 E0.01208
G1 X119.05 Y89.789 E0.01208
G1 X119.598 Y90.265 E0.01207
G1 X120.091 Y90.799 E0.01209
G1 X120.521 Y91.384 E0.01207
G1 X120.885 Y92.013 E0.01209
G1 X121.178 Y92.678 E0.01208
G1 X121.396 Y93.371 E0.01208
G1 X121.536 Y94.083 E0.01207
G1 X121.6 Y95 E0.01529
G1 X121.6 Y115 E0.3326
G1 X121.56 Y115.725 E0.01208
G1 X121.441 Y116.442 E0.01209
G1 X121.243 Y117.141 E0.01208
G1 X120.97 Y117.814 E0.01208
G1 X120.625 Y118.453 E0.01208
G1 X120.211 Y119.05 E0.01208
G1 X119.735 Y119.598 E0.01207
G1 X119.201 Y120.091 E0.01209
G1 X118.616 Y120.521 E0.01207
G1 X117.987 Y120.885 E0.01209
G1 X117.322 Y121.178 E0.01208
G1 X116.629 Y121.396 E0.01208
G1 X115.917 Y121.536 E0.01207
G1 X115 Y121.6 E0.01529
G1 X95 Y121.6 E0.3326
G1 X94.275 Y121.56 E0.01208
G1 X93.558 Y121.441 E0.01209
G1 X92.859 Y121.243 E0.01208
G1 X92.186 Y120.97 E0.01208
G1 X91.547 Y120.625 E0.01208
G1 X90.95 Y120.211 E0.01208
G1 X90.402 Y119.735 E0.01207
G1 X89.909 Y119.201 E0.01209
G1 X89.479 Y118.616 E0.01207
G1 X89.115 Y117.987 E0.01209
G1 X88.822 Y117.322 E0.01208
G1 X88.604 Y116.629 E0.01208
G1 X88.464 Y115.917 E0.01207
G1 X88.4 Y115 E0.01529
G1 X88.4 Y95 E0.3326
G1 X88.44 Y94.275 E0.01208
G1 X88.559 Y93.558 E0.01209
G1 X88.757 Y92.859 E0.01208
G1 X89.03 Y92.186 E0.01208
G1 X89.375 Y91.547 E0.01208
G1 X89.789 Y90.95 E0.01208
G1 X90.265 Y90.402 E0.01207
G0 F3600 X90.659 Y90.573
G1 F3000 X91.189 Y90.109 E0.01171
G1 X91.768 Y89.709 E0.0117
G1 X92.389 Y89.377 E0.01171
G1 X93.043 Y89.117 E0.0117
G1 X93.723 Y88.933 E0.01172
G1 X94.419 Y88.827 E0.01171
G1 X95 Y88.8 E0.00967
G1 X115 Y88.8 E0.3326
G1 X115.703 Y88.84 E0.01171
G1 X116.397 Y88.959 E0.01171
G1 X117.072 Y89.157 E0.0117
G1 X117.721 Y89.429 E0.0117
G1 X118.335 Y89.774 E0.01171
G1 X118.906 Y90.185 E0.0117
G1 X119.427 Y90.659 E0.01171
G1 X119.891 Y91.189 E0.01171
G1 X120.291 Y91.768 E0.0117
G1 X120.623 Y92.389 E0.01171
G1 X120.883 Y93.043 E0.0117
G1 X121.067 Y93.723 E0.01172
G1 X121.173 Y94.419 E0.01171
G1 X121.2 Y95 E0.00967
G1 X121.2 Y115 E0.3326
G1 X121.16 Y115.703 E0.01171
G1 X121.041 Y116.397 E0.01171
G1 X120.843 Y117.072 E0.0117
G1 X120.571 Y117.721 E0.0117
G1 X120.226 Y118.335 E0.01171
G1 X119.815 Y118.906 E0.0117
G1 X119.341 Y119.427 E0.01171
G1 X118.811 Y119.891 E0.01171
G1 X118.232 Y120.291 E0.0117
G1 X117.611 Y120.623 E0.01171
G1 X116.957 Y120.883 E0.0117
G1 X116.277 Y121.067 E0.01172
G1 X115.581 Y121.173 E0.01171
G1 X115 Y121.2 E0.00967
G1 X95 Y121.2 E0.3326
G1 X94.297 Y121.16 E0.01171
G1 X93.603 Y121.041 E0.01171
G1 X92.928 Y120.843 E0.0117
G1 X92.279 Y120.571 E0.0117
G1 X91.665 Y120.226 E0.01171
G1 X91.094 Y119.815 E0.0117
G1 X90.573 Y119.341 E0.01171
G1 X90.109 Y118.811 E0.01171
G1 X89.709 Y118.232 E0.0117
G1 X89.377 Y117.611 E0.01171
G1 X89.117 Y116.957 E0.0117
G1 X88.933 Y116.277 E0.01172
G1 X88.827 Y115.581 E0.01171
G1 X88.8 Y115 E0.00967
G1 X88.8 Y95 E0.3326
G1 X88.84 Y94.297 E0.01171
G1 X88.959 Y93.603 E0.01171
G1 X89.157 Y92.928 E0.0117
G1 X89.429 Y92.279 E0.0117
G1 X89.774 Y91.665 E0.01171
G1 X90.185 Y91.094 E0.0117
G1 X90.659 Y90.573 E0.01171
G0 F3600 X91.053 Y90.751
G1 F3000 X91.578 Y90.317 E0.01133
G1 X92.15 Y89.948 E0.01132
G1 X92.762 Y89.649 E0.01133
G1 X93.404 Y89.424 E0.01131
G1 X94.069 Y89.275 E0.01133
G1 X95 Y89.2 E0.01553
G1 X115 Y89.2 E0.3326
G1 X115.68 Y89.24 E0.01133
G1 X116.35 Y89.359 E0.01132
G1 X117.002 Y89.556 E0.01133
G1 X117.626 Y89.828 E0.01132
G1 X118.214 Y90.172 E0.01133
G1 X118.758 Y90.582 E0.01133
G1 X119.249 Y91.053 E0.01131
G1 X119.683 Y91.578 E0.01133
G1 X120.052 Y92.15 E0.01132
G1 X120.351 Y92.762 E0.01133
G1 X120.576 Y93.404 E0.01131
G1 X120.725 Y94.069 E0.01133
G1 X120.8 Y95 E0.01553
G1 X120.8 Y115 E0.3326
G1 X120.76 Y115.68 E0.01133
G1 X120.641 Y116.35 E0.01132
G1 X120.444 Y117.002 E0.01133
G1 X120.172 Y117.626 E0.01132
G1 X119.828 Y118.214 E0.01133
G1 X119.418 Y118.758 E0.01133
G1 X118.947 Y119.249 E0.01131
G1 X118.422 Y119.683 E0.01133
G1 X117.85 Y120.052 E0.01132
G1 X117.238 Y120.351 E0.01133
G1 X116.596 Y120.576 E0.01131
G1 X115.931 Y120.725 E0.01133
G1 X115 Y120.8 E0.01553
G1 X95 Y120.8 E0.3326
G1 X94.32 Y120.76 E0.01133
G1 X93.65 Y120.641 E0.01132
G1 X92.998 Y120.444 E0.01133
G1 X92.374 Y120.172 E0.01132
G1 X91.786 Y119.828 E0.01133
G1 X91.242 Y119.418 E0.01133
G1 X90.751 Y118.947 E0.01131
G1 X90.317 Y118.422 E0.01133
G1 X89.948 Y117.85 E0.01132
G1 X89.649 Y117.238 E0.01133
G1 X89.424 Y116.596 E0.01131
G1 X89.275 Y115.931 E0.01133
G1 X89.2 Y115 E0.01553
G1 X89.2 Y95 E0.3326
G1 X89.24 Y94.32 E0.01133
G1 X89.359 Y93.65 E0.01132
G1 X89.556 Y92.998 E0.01133
G1 X89.828 Y92.374 E0.01132
G1 X90.172 Y91.786 E0.01133
G1 X90.582 Y91.242 E0.01133
G1 X91.053 Y90.751 E0.01131
G0 F3600 X91.445 Y90.935
G1 F3000 X91.965 Y90.534 E0.01092
G1 X92.529 Y90.198 E0.01092
G1 X93.131 Y89.934 E0.01093
G1 X93.76 Y89.744 E0.01093
G1 X94.407 Y89.633 E0.01092
G1 X95 Y89.6 E0.00988
G1 X115 Y89.6 E0.3326
G1 X115.656 Y89.64 E0.01093
G1 X116.302 Y89.759 E0.01092
G1 X116.929 Y89.956 E0.01093
G1 X117.527 Y90.228 E0.01093
G1 X118.088 Y90.57 E0.01093
G1 X118.603 Y90.978 E0.01093
G1 X119.065 Y91.445 E0.01092
G1 X119.466 Y91.965 E0.01092
G1 X119.802 Y92.529 E0.01092
G1 X120.066 Y93.131 E0.01093
G1 X120.256 Y93.76 E0.01093
G1 X120.367 Y94.407 E0.01092
G1 X120.4 Y95 E0.00988
G1 X120.4 Y115 E0.3326
G1 X120.36 Y115.656 E0.01093
G1 X120.241 Y116.302 E0.01092
G1 X120.044 Y116.929 E0.01093
G1 X119.772 Y117.527 E0.01093
G1 X119.43 Y118.088 E0.01093
G1 X119.022 Y118.603 E0.01093
G1 X118.555 Y119.065 E0.01092
G1 X118.035 Y119.466 E0.01092
G1 X117.471 Y119.802 E0.01092
G1 X116.869 Y120.066 E0.01093
G1 X116.24 Y120.256 E0.01093
G1 X115.593 Y120.367 E0.01092
G1 X115 Y120.4 E0.00988
G1 X95 Y120.4 E0.3326
G1 X94.344 Y120.36 E0.01093
G1 X93.698 Y120.241 E0.01092
G1 X93.071 Y120.044 E0.01093
G1 X92.473 Y119.772 E0.01093
G1 X91.912 Y119.43 E0.01093
G1 X91.397 Y119.022 E0.01093
G1 X90.935 Y118.555 E0.01092
G1 X90.534 Y118.035 E0.01092
G1 X90.198 Y117.471 E0.01092
G1 X89.934 Y116.869 E0.01093
G1 X89.744 Y116.24 E0.01093
G1 X89.633 Y115.593 E0.01092
G1 X89.6 Y115 E0.00988
G1 X89.6 Y95 E0.3326
G1 X89.64 Y94.344 E0.01093
G1 X89.759 Y93.698 E0.01092
G1 X89.956 Y93.071 E0.01093
G1 X90.228 Y92.473 E0.01093
G1 X90.57 Y91.912 E0.01093
G1 X90.978 Y91.397 E0.01093
G1 X91.445 Y90.935 E0.01092
G0 F3600 X91.373 Y91.559
G1 F3000 X91.836 Y91.129 E0.01051
G1 X92.35 Y90.76 E0.01052
G1 X92.906 Y90.46 E0.01051
G1 X93.495 Y90.232 E0.0105
G1 X94.109 Y90.08 E0.01052
G1 X95 Y90 E0.01488
G1 X115 Y90 E0.3326
G1 X115.631 Y90.04 E0.01051
G1 X116.252 Y90.159 E0.01052
G1 X116.852 Y90.356 E0.0105
G1 X117.424 Y90.627 E0.01053
G1 X117.956 Y90.967 E0.0105
G1 X118.441 Y91.373 E0.01052
G1 X118.871 Y91.836 E0.01051
G1 X119.24 Y92.35 E0.01052
G1 X119.54 Y92.906 E0.01051
G1 X119.768 Y93.495 E0.0105
G1 X119.92 Y94.109 E0.01052
G1 X120 Y95 E0.01488
G1 X120 Y115 E0.3326
G1 X119.96 Y115.631 E0.01051
G1 X119.841 Y116.252 E0.01052
G1 X119.644 Y116.852 E0.0105
G1 X119.373 Y117.424 E0.01053
G1 X119.033 Y117.956 E0.0105
G1 X118.627 Y118.441 E0.01052
G1 X118.164 Y118.871 E0.01051
G1 X117.65 Y119.24 E0.01052
G1 X117.094 Y119.54 E0.01051
G1 X116.505 Y119.768 E0.0105
G1 X115.891 Y119.92 E0.01052
G1 X115 Y120 E0.01488
G1 X95 Y120 E0.3326
G1 X94.369 Y119.96 E0.01051
G1 X93.748 Y119.841 E0.01052
G1 X93.148 Y119.644 E0.0105
G1 X92.576 Y119.373 E0.01053
G1 X92.044 Y119.033 E0.0105
G1 X91.559 Y118.627 E0.01052
G1 X91.129 Y118.164 E0.01051
G1 X90.76 Y117.65 E0.01052
G1 X90.46 Y117.094 E0.01051
G1 X90.232 Y116.505 E0.0105
G1 X90.08 Y115.891 E0.01052
G1 X90 Y115 E0.01488
G1 X90 Y95 E0.3326
G1 X90.04 Y94.369 E0.01051
G1 X90.159 Y93.748 E0.01052
G1 X90.356 Y93.148 E0.0105
G1 X90.627 Y92.576 E0.01053
G1 X90.967 Y92.044 E0.0105
G1 X91.373 Y91.559 E0.01052
G0 F3600 X91.767 Y91.728
G1 F3000 X92.225 Y91.331 E0.01008
G1 X92.732 Y90.998 E0.01009
G1 X93.278 Y90.734 E0.01009
G1 X93.854 Y90.545 E0.01008
G1 X94.45 Y90.433 E0.01009
G1 X95 Y90.4 E0.00916
G1 X115 Y90.4 E0.3326
G1 X115.605 Y90.44 E0.01008
G1 X116.199 Y90.559 E0.01007
G1 X116.773 Y90.755 E0.01009
G1 X117.316 Y91.026 E0.01009
G1 X117.819 Y91.365 E0.01009
G1 X118.272 Y91.767 E0.01007
G1 X118.669 Y92.225 E0.01008
G1 X119.002 Y92.732 E0.01009
G1 X119.266 Y93.278 E0.01009
G1 X119.455 Y93.854 E0.01008
G1 X119.567 Y94.45 E0.01009
G1 X119.6 Y95 E0.00916
G1 X119.6 Y115 E0.3326
G1 X119.56 Y115.605 E0.01008
G1 X119.441 Y116.199 E0.01007
G1 X119.245 Y116.773 E0.01009
G1 X118.974 Y117.316 E0.01009
G1 X118.635 Y117.819 E0.01009
G1 X118.233 Y118.272 E0.01007
G1 X117.775 Y118.669 E0.01008
G1 X117.268 Y119.002 E0.01009
G1 X116.722 Y119.266 E0.01009
G1 X116.146 Y119.455 E0.01008
G1 X115.55 Y119.567 E0.01009
G1 X115 Y119.6 E0.00916
G1 X95 Y119.6 E0.3326
G1 X94.395 Y119.56 E0.01008
G1 X93.801 Y119.441 E0.01007
G1 X93.227 Y119.245 E0.01009
G1 X92.684 Y118.974 E0.01009
G1 X92.181 Y118.635 E0.01009
G1 X91.728 Y118.233 E0.01007
G1 X91.331 Y117.775 E0.01008
G1 X90.998 Y117.268 E0.01009
G1 X90.734 Y116.722 E0.01009
G1 X90.545 Y116.146 E0.01008
G1 X90.433 Y115.55 E0.01009
G1 X90.4 Y115 E0.00916
G1 X90.4 Y95 E0.3326
G1 X90.44 Y94.395 E0.01008
G1 X90.559 Y93.801 E0.01007
G1 X90.755 Y93.227 E0.01009
G1 X91.026 Y92.684 E0.01009
G1 X91.365 Y92.181 E0.01009
G1 X91.767 Y91.728 E0.01007
G0 F3600 X92.16 Y91.906
G1 F3000 X92.613 Y91.544 E0.00964
G1 X93.111 Y91.249 E0.00963
G1 X93.645 Y91.024 E0.00964
G1 X94.205 Y90.876 E0.00963
G1 X95 Y90.8 E0.01328
G1 X115 Y90.8 E0.3326
G1 X115.578 Y90.84 E0.00964
G1 X116.145 Y90.959 E0.00963
